X:1
T:Adieu
A:France
F:http://simonwascher.info/
Z:abc transcription Simon Wascher
M:4/4
L:1/4
K:D %Transposed from G
D2F>E | D2F>E | DEFG | A2-A2 |
F2F>A | AFDE |1 F3G | E2-E2:|\
             [2 F2E2 | D2-D2 ||
A2d>c | B3G | G2B2 | A2-A2 |
F2F>A | AFDE |1 F3G | E2-E2:|\
             [2 F2E>D | D2-D2 |]
%%wordsfont Times-Italic 11pt
W:aus Simon Waschers TradArchiv
